src/ui/hourglass.svg

<?xml version="1.0" encoding="UTF-8"?><svg xmlns="http://www.w3.org/2000/svg" width="32" height="32" viewBox="0 0 32 32"><defs><style>.uuid-7faaca3e-98d5-47c8-91ed-7ab4699e4044{fill:none;}.uuid-b66c6e2c-9b8e-43d1-9313-684044ec8cd6{fill:#151515;}</style></defs><g id="uuid-f01b0d12-967b-40ab-94de-75c57e67d429"><rect class="uuid-7faaca3e-98d5-47c8-91ed-7ab4699e4044" width="32" height="32"/></g><g id="uuid-05a9cdf6-7404-426c-9620-229def62b5ae"><path class="uuid-b66c6e2c-9b8e-43d1-9313-684044ec8cd6" d="M26,29h-1v-3.75732c0-1.06787-.41602-2.07227-1.17188-2.82861l-6.41406-6.41406,6.41406-6.41406c.75586-.75635,1.17188-1.76074,1.17188-2.82861v-3.75732h1c.55273,0,1-.44775,1-1s-.44727-1-1-1H6c-.55273,0-1,.44775-1,1s.44727,1,1,1h1v3.75732c0,1.06787.41602,2.07227,1.17188,2.82861l6.41406,6.41406-6.41406,6.41406c-.75586.75635-1.17188,1.76074-1.17188,2.82861v3.75732h-1c-.55273,0-1,.44775-1,1s.44727,1,1,1h20c.55273,0,1-.44775,1-1s-.44727-1-1-1ZM23,3v3.75732c0,.0824-.01392.16211-.02368.24268h-13.95264c-.00977-.08057-.02368-.16028-.02368-.24268v-3.75732h14ZM9,25.24268c0-.53369.20801-1.03613.58594-1.41455l6.41406-6.41406,6.41406,6.41406c.37793.37842.58594.88086.58594,1.41455v.75732h-14v-.75732Z"/></g></svg>

<svg xmlns="http://www.w3.org/2000/svg" viewBox="0 0 32 32">
  <path d="M26 29h-1v-3.757a3.977 3.977 0 0 0-1.172-2.829L17.414 16l6.414-6.414A3.975 3.975 0 0 0 25 6.757V3h1a1 1 0 1 0 0-2H6a1 1 0 1 0 0 2h1v3.757c0 1.068.416 2.072 1.172 2.829L14.586 16l-6.414 6.414A3.975 3.975 0 0 0 7 25.243V29H6a1 1 0 1 0 0 2h20a1 1 0 1 0 0-2ZM23 3v3.757c0 .082-.014.162-.024.243H9.023c-.01-.081-.024-.16-.024-.243V3h14ZM9 25.243c0-.534.208-1.036.586-1.415L16 17.414l6.414 6.414c.378.378.586.881.586 1.415V26H9v-.757Z"/>
</svg>
